icons/file-copy-2-line.svg

<svg xmlns="http://www.w3.org/2000/svg" width="24" height="24" fill="none"><g clip-path="url(#a)"><g><path fill="#121212" d="M7 6V3C7 2.73478 7.10536 2.48043 7.29289 2.29289C7.48043 2.10536 7.73478 2 8 2H20C20.2652 2 20.5196 2.10536 20.7071 2.29289C20.8946 2.48043 21 2.73478 21 3V17C21 17.2652 20.8946 17.5196 20.7071 17.7071C20.5196 17.8946 20.2652 18 20 18H17V21C17 21.552 16.55 22 15.993 22H4.007C3.87513 22.0008 3.7444 21.9755 3.62232 21.9256C3.50025 21.8757 3.38923 21.8022 3.29566 21.7093C3.20208 21.6164 3.12779 21.5059 3.07705 21.3841C3.02632 21.2624 3.00013 21.1319 3 21L3.003 7C3.003 6.448 3.453 6 4.009 6H7ZM5.002 8L5 20H15V8H5.002ZM9 6H17V16H19V4H9V6ZM7 11H13V13H7V11ZM7 15H13V17H7V15Z"/></g></g><defs><clipPath id="a"><rect width="24" height="24" fill="white"/></clipPath></defs></svg>

<svg width="24" height="24" fill="none" xmlns="http://www.w3.org/2000/svg"><g clip-path="url(#a)"><path d="M7 6V3a1 1 0 0 1 1-1h12a1 1 0 0 1 1 1v14a1 1 0 0 1-1 1h-3v3c0 .552-.45 1-1.007 1H4.007A1 1 0 0 1 3 21l.003-14c0-.552.45-1 1.006-1H7ZM5.002 8 5 20h10V8H5.002ZM9 6h8v10h2V4H9v2Zm-2 5h6v2H7v-2Zm0 4h6v2H7v-2Z" /></g><defs><clipPath id="a"><path fill="#fff" d="M0 0h24v24H0z"/></clipPath></defs></svg>
